!!!OTL: I Never Knew
!!!COM: Pitts, Tom
!!!COM: Egan, Ray
!!!COM: Marsh, Roy K.
!! "I Never Knew" by Tom Pitts, Ray Egan, and Roy K. Marsh
!! from "Barbershop Memories" compiled and arranged by Hugo Frey
!! copyright 1975 by EMI Music Publ. Ltd.; p. 26; alla breve; in G major
!! NOTE:  The second ending is encoded.
**kern	**kern	**kern	**kern
*Ivox	*Ivox	*Ivox	*Ivox
*M2/2	*M2/2	*M2/2	*M2/2
*G:	*G:	*G:	*G:
=1	=1	=1	=1
2GG	2D	4r	4r
.	.	4B	4d
4GG	4D	4A	4c
4GG	4D	4G	4B
=2	=2	=2	=2
2GG	2D	2B	2d
4GG	4D	4A	4c
4GG	4D	4G	4B
=3	=3	=3	=3
{4GG	2G	4r	4r
4G}	.	4B	4B
4F#	4A	4c	4c
4Fn	4A	4d	4B
=4	=4	=4	=4
2E	2G#	2e	2c
2E	2G#	2B	2d
=5	=5	=5	=5
4AA	4Gn	4A#	4c#
4AA	4G	4B	4c#
4BB-	4G	4D#	4c#
4AA	4G	4E	4c#
=6	=6	=6	=6
2D	2F#	2B	2d
2D	2F#	2B	2d
=7	=7	=7	=7
[1GG	2D	[1G	[1B
.	4E	.	.
.	4F#	.	.
=8	=8	=8	=8
4GG]	4E	4G]	4B]
4GG	4D	4G	4B
4AA	4D	4F#	4c
4BB	4G	4Fn	4d
=9	=9	=9	=9
4C	4G	4E	4c
2C	2c	2G	2e
[4C	[4G	[4c	[4e
=10	=10	=10	=10
2C]	2G]	2c]	2e]
4E	4G	4G	4c
4E-	4G	4A	4c
=11	=11	=11	=11
2D	2G	2B	2d
2Fn	2A	2B	2d#
=12	=12	=12	=12
1E	1G#	1B	1e
=13	=13	=13	=13
4AA	4Gn	4A	4c#
4AA	4F#	4B	4d
4AA	4G	4c#	4e
4EE	4B	4d	4g
=14	=14	=14	=14
2A	2c#	2e	2g
2E	2c#	2A	2g
=15	=15	=15	=15
{2D	[1cn	[1A	{2f#
2E	.	.	2e
=16	=16	=16	=16
4F#}	4c]	4A]	4d}
4r	4D	4r	4r
2r	4G	2r	2r
.	4A	.	.
=17	=17	=17	=17
4r	[1B	4r	4r
2G	.	2e	2g
4G	.	4d	4fn
=18	=18	=18	=18
4G	4B]	4e	4g
4r	4D	4r	4r
2r	4G	2r	2r
.	4A	.	.
=19	=19	=19	=19
4r	[1B	4r	4r
2G	.	2e	2g
4G	.	4d	4fn
=20	=20	=20	=20
4G	4B]	4e	4g
4GG	4r	4r	4r
4AA	4r	4r	4r
4GG	4G	4B	4fn
=21	=21	=21	=21
4C	4G	4d	4e
4C	4G	4c	4e
4C	4G	4d	4e
4C	4G	4c	4e
=22	=22	=22	=22
4C	4G	4d	4e
4C	4G	4c	4e
4Fn	4A	4d	4e-
4F	4A	4c	4e-
=23	=23	=23	=23
4C	4G	4d	4en
2C	2G	2c	2e
[4E	[4G	[4G	[4c
=24	=24	=24	=24
2E]	2G]	2G]	2c]
2E-	2G	2A	2c#
=25	=25	=25	=25
2GG	2D	4r	4r
.	.	4B	4d
4GG	4D	4A	4cn
4GG	4D	4G	4B
=26	=26	=26	=26
2GG	2D	2B	2d
4GG	4D	4A	4c
4GG	4D	4G	4B
=27	=27	=27	=27
{4GG	2G	4r	4r
4G}	.	4B	4B
4F#	4A	4c	4c
4Fn	4A	4d	4B
=28	=28	=28	=28
2E	2G#	2e	2c
2E	2G#	2B	2d
=29	=29	=29	=29
4AA	4Gn	4A#	4c#
4AA	4G	4B	4c#
4BB-	4G	4D#	4c#
4AA	4G	4E	4c#
=30	=30	=30	=30
2D	2F#	2B	2d
2D	2F#	2B	2d
=31	=31	=31	=31
2.GG	2.D	2.G	2.B
4D	4F#	4A#	4d
=32	=32	=32	=32
4C#;	4G;	4B;	4e;
4Cn;	4F#;	4A#;	4e;
2GG;	2D;	2B;	2g;
==	==	==	==
*-	*-	*-	*-
